cellular/assets/icons/svg/mobile.svg

<svg xmlns="http://www.w3.org/2000/svg" xmlns:xlink="http://www.w3.org/1999/xlink" width="32" height="32" viewBox="0 0 32 32">
    <symbol id="a" viewBox="-10.864 -16 21.728 32">
        <path fill="#ccc" d="M7.188-16h-14.378c-2.025 0-3.674 1.648-3.674 3.674v24.65c0 2.026 1.648 3.676 3.674 3.676h14.378c2.026 0 3.676-1.648 3.676-3.676v-24.65c0-2.026-1.649-3.674-3.676-3.674zm-14.378 30.814c-1.372 0-2.488-1.117-2.488-2.49v-24.65c0-1.373 1.116-2.488 2.488-2.488h14.378c1.374 0 2.491 1.115 2.491 2.488v24.65c0 1.373-1.117 2.49-2.491 2.49h-14.378z"/>
        <path d="M10.272-12.326c0-1.701-1.38-3.081-3.084-3.081h-14.378c-1.702 0-3.081 1.38-3.081 3.081v24.65c0 1.703 1.379 3.083 3.081 3.083h14.378c1.704 0 3.084-1.38 3.084-3.083v-24.65z"/>
        <path fill="#fff" d="M8.475-9.417h-16.95v22.257h16.95z"/>
        <path fill="#999" d="M8.771-9.713h-17.542v22.85h17.542v-22.85zm-16.949.593h16.357v21.664h-16.357v-21.664z"/>
        <path fill="#808080" d="M1.561-12.519c0-.862-.699-1.563-1.563-1.563-.861 0-1.558.7-1.558 1.563 0 .862.696 1.563 1.558 1.563.863 0 1.563-.7 1.563-1.563z"/>
        <path fill="#ccc" d="M-.002-14.377c-1.022 0-1.854.833-1.854 1.858 0 1.024.832 1.857 1.854 1.857 1.025 0 1.858-.833 1.858-1.857 0-1.025-.833-1.858-1.858-1.858zm0 3.125c-.695 0-1.262-.568-1.262-1.267s.566-1.268 1.262-1.268c.697 0 1.266.568 1.266 1.268 0 .699-.569 1.267-1.266 1.267zM1.015 1.367c.783-4.074-6.578-8.868-6.578-8.868s4.349 5.891 3.373 10.222c-.978 4.329 1.933 9.638 1.933 9.638h5.821c-.001-.002-5.329-6.916-4.549-10.992z"/>
        <path fill="none" d="M1.015 1.367c.783-4.074-6.578-8.868-6.578-8.868s4.349 5.891 3.373 10.222c-.978 4.329 1.933 9.638 1.933 9.638h5.821c-.001-.002-5.329-6.916-4.549-10.992z"/>
    </symbol>
    <use xlink:href="#a" width="21.728" height="32" x="-10.864" y="-16" transform="matrix(1 0 0 -1 16 16)" overflow="visible"/>
</svg>

<?xml version="1.0" encoding="utf-8"?>
<!-- Generator: Adobe Illustrator 14.0.0, SVG Export Plug-In . SVG Version: 6.00 Build 43363)  -->
<!DOCTYPE svg PUBLIC "-//W3C//DTD SVG 1.1//EN" "http://www.w3.org/Graphics/SVG/1.1/DTD/svg11.dtd">
<svg version="1.1" id="Layer_1" xmlns="http://www.w3.org/2000/svg" xmlns:xlink="http://www.w3.org/1999/xlink" x="0px" y="0px"
	 width="32px" height="32px" viewBox="0 0 32 32" enable-background="new 0 0 32 32" xml:space="preserve">
<symbol  id="a" viewBox="-10.864 -16 21.728 32">
	<path fill="#CCCCCC" d="M7.188-16H-7.19c-2.025,0-3.674,1.648-3.674,3.674v24.65C-10.864,14.35-9.216,16-7.19,16H7.188
		c2.026,0,3.676-1.648,3.676-3.676v-24.65C10.864-14.352,9.214-16,7.188-16z M-7.19,14.814c-1.372,0-2.488-1.117-2.488-2.49v-24.65
		c0-1.373,1.116-2.488,2.488-2.488H7.188c1.374,0,2.49,1.115,2.49,2.488v24.65c0,1.373-1.116,2.49-2.49,2.49H-7.19z"/>
	<path d="M10.272-12.326c0-1.7-1.38-3.08-3.084-3.08H-7.19c-1.702,0-3.08,1.38-3.08,3.08v24.65c0,1.703,1.378,3.083,3.08,3.083
		H7.188c1.704,0,3.084-1.38,3.084-3.083V-12.326z"/>
	<path fill="#FFFFFF" d="M8.475-9.417h-16.95V12.84h16.95V-9.417z"/>
	<path fill="#999999" d="M8.77-9.713H-8.77v22.85H8.77V-9.713z M-8.178-9.12H8.18v21.664H-8.18V-9.12H-8.178z"/>
	<path fill="#808080" d="M1.56-12.52c0-0.86-0.698-1.563-1.562-1.563c-0.86,0-1.558,0.7-1.558,1.563
		c0,0.862,0.696,1.569,1.558,1.569c0.863,0,1.563-0.7,1.563-1.563L1.56-12.52z"/>
	<path fill="#CCCCCC" d="M-0.002-14.377c-1.022,0-1.854,0.833-1.854,1.858c0,1.029,0.832,1.859,1.854,1.859
		c1.025,0,1.858-0.83,1.858-1.854c0-1.024-0.833-1.857-1.858-1.857V-14.377z M-0.002-11.252c-0.695,0-1.262-0.568-1.262-1.267
		c0-0.699,0.566-1.263,1.262-1.263c0.697,0,1.266,0.568,1.266,1.269c0,0.699-0.57,1.268-1.266,1.268V-11.252z M1.015,1.368
		c0.783-4.075-6.578-8.87-6.578-8.87S-1.213-1.61-2.19,2.722c-0.978,4.33,1.933,9.641,1.933,9.641h5.82
		C5.563,12.359,0.235,5.445,1.015,1.368L1.015,1.368z"/>
	<path fill="none" d="M1.015,1.367C1.798-2.707-5.563-7.5-5.563-7.5s4.35,5.89,3.373,10.22c-0.978,4.33,1.933,9.641,1.933,9.641
		h5.82C5.563,12.357,0.235,5.443,1.015,1.367z"/>
</symbol>
<use xlink:href="#a"  width="21.728" height="32" x="-10.864" y="-16" transform="matrix(1 0 0 -1 16 16)" overflow="visible"/>
</svg>
